X: 9228
T: Dan Collins' Father's
R: jig
M: 6/8
K: Dmajor
|:c|d2 A B^AB def =a2 f|aba f2 e edd dfe|
dAA B^AB dd/e/f =a3|aba f2 e edd d2:|
|:g|faa faa afe f2 g|aa/a/a ff/f/f dB/B/^A BAB|
d2 A B^AB dd/e/f =a2 f|aba f2 e edd d2:|

